X: 213
T: Farewell to Nigg
C:Duncan Johnstone
R:Waltz
M:3/4
P: Highland Pipe March / Retreat
L:1/8
K:Em
"Em"EF |G2 F>E "D"D<F| "Em"E4GA| "G"B2 G>A B<d| "Bm"B4 Bd|
"Em"B2E2 GA| "D"F>E D2 FA| "Em(Cmaj7)"B2 "D"A<F D<F| "Em"E4:|
GA |"G"B2B2 d>A| "Em"B2E2 GA|"G" B2 Bd B>A|"Bm" F4 GA|
"Em"B2 E2 GA| "D"F>E D2 FA| "Em(Cmaj7)"B2 "D"A<F D<F| "Em"E4:|


